X: 100230
M: C|
L: 1/8
K: Bb
u(Bc) |\
(dB)FB (DB)FB | (cB)cd B2cd | (eg)fe (dc)BA | (cB)AG (^Fe)dc |\
(dB)FB (DB)FB | (cB)cd B2cd | (ec)AF (fd)BF | G(cBA) B2 :|
|: u(dD) |\


